X:1
T:Congleton, 10.10.10.10
T:Congleton, 10.10.10.10
T:Attributed to Michael Wise (ca. 1648-1687)
T:Public Domain Courtesy of the Cyber Hymnal™
C:Attributed to Michael Wise (ca. 1648-1687)
Z:Public Domain
Z:Courtesy of the Cyber Hymnal™
%%score ( 1 2 ) ( 3 4 )
L:1/8
Q:1/4=115
M:3/4
K:Bb
V:1 treble 
V:2 treble 
V:3 bass 
V:4 bass 
V:1
 [DG]2 [DB]4 [DA]2 | [DB]2 [CG]2 [D^F]2 [B,G]2 =F3 z E | D6 [DF]2 [CF]2 [B,D]2 | %3
 [B,G]3 [DA] G2 z A [DG]2 [CG]2 | [D^F]6 [DA]2 [DA]2 [DA]2 | [DB]2 [Fc]2 [Fd]2 [Fd]2 [Fc]2 c2 | %6
 [DB]6 D2 [D=E]2 [CE]2 | [D^F]2 [DF]2 [DG]2 [EA]2 [DF]3 [DF] | [DG]4 |] %9
V:2
 x8 | x8 C2 C2 x | D6 x6 | x4 D3 D2 x3 | x12 | x10 (FE) | x6 D2 x4 | x12 | x4 |] %9
V:3
 [G,,B,]2 G,4 [^F,A,]2 | G,2 [E,G,]2 [D,A,]2 [E,G,]2 [C,G,]2 [C,A,]2 x | %2
 [B,,B,]6 [B,,F,]2 [A,,F,]2 [B,,F,]2 | [G,,G,]3 [D,^F,] G,2 z A, [E,B,]2 [E,G,]2 | %4
 [D,A,]6 [D,^F,]2 [D,F,]2 [D,F,]2 | G,2 [F,A,]2 [D,A,]2 [B,,B,]2 [F,B,]2 [F,A,]2 | %6
 [B,,B,]6 [B,,B,]2 [C,G,]2 [A,,A,]2 | [D,A,]2 [C,A,]2 [B,,B,]2 [C,A,]2 [D,A,]3 [D,A,] | [G,,B,]4 |] %9
V:4
 x2 G,4 x2 | G,2 x11 | x12 | x4 G,3 =F,2 x3 | x12 | G,2 x10 | x12 | x12 | x4 |] %9

